svg/color/bho.svg

<?xml version="1.0" encoding="UTF-8" ?>
<!DOCTYPE svg PUBLIC "-//W3C//DTD SVG 1.1//EN" "http://www.w3.org/Graphics/SVG/1.1/DTD/svg11.dtd">
<svg width="250pt" height="250pt" viewBox="0 0 250 250" version="1.1" xmlns="http://www.w3.org/2000/svg">
<g id="#ffffffff">
<path fill="#ffffff" opacity="1.00" d=" M 0.00 0.00 L 250.00 0.00 L 250.00 250.00 L 0.00 250.00 L 0.00 0.00 M 109.78 44.80 C 109.84 50.73 109.75 56.65 109.83 62.57 C 114.64 59.92 119.33 57.06 124.13 54.39 C 125.60 53.58 126.92 55.23 128.19 55.74 C 151.87 69.47 175.64 83.03 199.25 96.86 C 200.13 97.41 201.09 97.78 202.13 97.96 C 202.23 92.06 202.05 86.18 201.79 80.30 C 176.16 65.66 150.74 50.58 125.03 36.14 C 119.78 38.61 114.80 41.82 109.78 44.80 M 81.36 61.22 C 81.24 90.92 81.32 120.62 81.32 150.32 C 95.04 158.07 108.49 166.32 122.34 173.80 L 122.33 173.93 C 123.21 174.47 124.09 175.00 124.98 175.53 C 139.47 167.02 154.09 158.74 168.64 150.33 C 168.68 133.45 168.67 116.57 168.64 99.68 C 154.11 91.24 139.45 82.99 124.97 74.46 C 124.00 75.05 123.04 75.65 122.07 76.25 C 114.36 80.47 106.78 84.96 99.21 89.42 C 99.09 78.92 99.19 68.42 99.15 57.92 C 99.08 55.66 99.46 53.34 98.76 51.15 C 92.98 54.54 87.17 57.87 81.36 61.22 M 47.79 80.74 C 47.89 100.84 47.81 120.93 47.84 141.03 C 47.93 142.86 47.51 144.79 48.31 146.52 C 53.20 143.51 58.15 140.58 63.23 137.93 C 63.55 121.75 63.24 105.55 63.41 89.37 C 65.77 88.04 68.14 86.73 70.42 85.26 C 70.32 79.32 70.51 73.37 70.32 67.43 C 62.89 71.99 55.06 75.93 47.79 80.74 M 186.62 112.30 C 186.51 128.48 186.41 144.68 186.68 160.86 C 191.82 163.53 196.76 166.55 201.76 169.48 C 202.01 167.97 202.14 166.46 202.15 164.94 C 202.10 150.58 202.17 136.21 202.12 121.85 C 197.58 117.93 191.64 115.68 186.62 112.30 M 48.08 169.75 C 72.51 183.66 96.80 197.84 121.18 211.85 C 122.64 212.51 123.95 214.16 125.71 213.62 C 144.52 202.69 163.39 191.87 182.22 180.98 C 177.54 178.22 172.81 175.55 168.13 172.80 C 167.29 172.11 166.43 172.07 165.55 172.67 C 152.92 180.03 140.22 187.26 127.61 194.63 C 126.54 195.12 125.34 196.38 124.10 195.61 C 103.77 183.99 83.57 172.12 63.21 160.55 C 58.30 163.82 52.74 166.14 48.08 169.75 Z" />
<path fill="#ffffff" opacity="1.00" d=" M 124.12 95.43 C 125.11 95.30 126.01 95.52 126.82 96.10 C 134.75 100.87 142.90 105.30 150.80 110.14 C 150.72 120.10 150.85 130.06 150.74 140.02 C 142.35 144.82 134.00 149.72 125.62 154.54 C 125.23 154.54 124.43 154.53 124.04 154.53 C 115.92 149.43 107.46 144.89 99.19 140.03 C 99.13 130.02 99.14 120.00 99.19 109.98 C 107.47 105.09 115.96 100.53 124.12 95.43 Z" />
</g>
<g id="#6e237aff">
<path fill="#6e237a" opacity="1.00" d=" M 109.78 44.80 C 114.80 41.82 119.78 38.61 125.03 36.14 C 150.74 50.58 176.16 65.66 201.79 80.30 C 202.05 86.18 202.23 92.06 202.13 97.96 C 201.09 97.78 200.13 97.41 199.25 96.86 C 175.64 83.03 151.87 69.47 128.19 55.74 C 126.92 55.23 125.60 53.58 124.13 54.39 C 119.33 57.06 114.64 59.92 109.83 62.57 C 109.75 56.65 109.84 50.73 109.78 44.80 Z" />
<path fill="#6e237a" opacity="1.00" d=" M 47.79 80.74 C 55.06 75.93 62.89 71.99 70.32 67.43 C 70.51 73.37 70.32 79.32 70.42 85.26 C 68.14 86.73 65.77 88.04 63.41 89.37 C 63.24 105.55 63.55 121.75 63.23 137.93 C 58.15 140.58 53.20 143.51 48.31 146.52 C 47.51 144.79 47.93 142.86 47.84 141.03 C 47.81 120.93 47.89 100.84 47.79 80.74 Z" />
<path fill="#6e237a" opacity="1.00" d=" M 122.07 76.25 C 123.04 75.65 124.00 75.05 124.97 74.46 C 139.45 82.99 154.11 91.24 168.64 99.68 C 168.67 116.57 168.68 133.45 168.64 150.33 C 154.09 158.74 139.47 167.02 124.98 175.53 C 124.09 175.00 123.21 174.47 122.33 173.93 L 122.34 173.80 C 122.77 167.35 121.95 160.78 124.04 154.53 C 124.43 154.53 125.23 154.54 125.62 154.54 C 134.00 149.72 142.35 144.82 150.74 140.02 C 150.85 130.06 150.72 120.10 150.80 110.14 C 142.90 105.30 134.75 100.87 126.82 96.10 C 126.01 95.52 125.11 95.30 124.12 95.43 C 120.31 89.56 124.66 82.53 122.07 76.25 Z" />
</g>
<g id="#ba197fff">
<path fill="#ba197f" opacity="1.00" d=" M 81.36 61.22 C 87.17 57.87 92.98 54.54 98.76 51.15 C 99.46 53.34 99.08 55.66 99.15 57.92 C 99.19 68.42 99.09 78.92 99.21 89.42 C 106.78 84.96 114.36 80.47 122.07 76.25 C 124.66 82.53 120.31 89.56 124.12 95.43 C 115.96 100.53 107.47 105.09 99.19 109.98 C 99.14 120.00 99.13 130.02 99.19 140.03 C 107.46 144.89 115.92 149.43 124.04 154.53 C 121.95 160.78 122.77 167.35 122.34 173.80 C 108.49 166.32 95.04 158.07 81.32 150.32 C 81.32 120.62 81.24 90.92 81.36 61.22 Z" />
<path fill="#ba197f" opacity="1.00" d=" M 186.62 112.30 C 191.64 115.68 197.58 117.93 202.12 121.85 C 202.17 136.21 202.10 150.58 202.15 164.94 C 202.14 166.46 202.01 167.97 201.76 169.48 C 196.76 166.55 191.82 163.53 186.68 160.86 C 186.41 144.68 186.51 128.48 186.62 112.30 Z" />
<path fill="#ba197f" opacity="1.00" d=" M 48.08 169.75 C 52.74 166.14 58.30 163.82 63.21 160.55 C 83.57 172.12 103.77 183.99 124.10 195.61 C 125.34 196.38 126.54 195.12 127.61 194.63 C 140.22 187.26 152.92 180.03 165.55 172.67 C 166.43 172.07 167.29 172.11 168.13 172.80 C 172.81 175.55 177.54 178.22 182.22 180.98 C 163.39 191.87 144.52 202.69 125.71 213.62 C 123.95 214.16 122.64 212.51 121.18 211.85 C 96.80 197.84 72.51 183.66 48.08 169.75 Z" />
</g>
</svg>

<?xml version="1.0" encoding="utf-8"?>
<!-- Generator: Adobe Illustrator 26.0.3, SVG Export Plug-In . SVG Version: 6.00 Build 0)  -->
<svg version="1.1" id="Layer_1" xmlns="http://www.w3.org/2000/svg" xmlns:xlink="http://www.w3.org/1999/xlink" x="0px" y="0px"
	 viewBox="0 0 250 250" style="enable-background:new 0 0 250 250;" xml:space="preserve">
<style type="text/css">
	.st0{fill:#FFFFFF;}
	.st1{fill:#6E237A;}
	.st2{fill:#BA197F;}
</style>
<g id="_x23_ffffffff">
	<path class="st0" d="M124.1,95.4c1-0.1,1.9,0.1,2.7,0.7c7.9,4.8,16.1,9.2,24,14c-0.1,10,0.1,19.9-0.1,29.9
		c-8.4,4.8-16.7,9.7-25.1,14.5c-0.4,0-1.2,0-1.6,0c-8.1-5.1-16.6-9.6-24.8-14.5c-0.1-10-0.1-20,0-30
		C107.5,105.1,116,100.5,124.1,95.4z"/>
</g>
<g id="_x23_6e237aff">
	<path class="st1" d="M109.8,44.8c5-3,10-6.2,15.2-8.7c25.7,14.4,51.1,29.5,76.8,44.2c0.3,5.9,0.4,11.8,0.3,17.7
		c-1-0.2-2-0.5-2.9-1.1c-23.6-13.8-47.4-27.4-71.1-41.1c-1.3-0.5-2.6-2.2-4.1-1.4c-4.8,2.7-9.5,5.5-14.3,8.2
		C109.8,56.7,109.8,50.7,109.8,44.8z"/>
	<path class="st1" d="M47.8,80.7c7.3-4.8,15.1-8.8,22.5-13.3c0.2,5.9,0,11.9,0.1,17.8c-2.3,1.5-4.7,2.8-7,4.1
		c-0.2,16.2,0.1,32.4-0.2,48.6c-5.1,2.7-10,5.6-14.9,8.6c-0.8-1.7-0.4-3.7-0.5-5.5C47.8,120.9,47.9,100.8,47.8,80.7z"/>
	<path class="st1" d="M122.1,76.2c1-0.6,1.9-1.2,2.9-1.8c14.5,8.5,29.1,16.8,43.7,25.2c0,16.9,0,33.8,0,50.7
		c-14.6,8.4-29.2,16.7-43.7,25.2c-0.9-0.5-1.8-1.1-2.7-1.6l0-0.1c0.4-6.4-0.4-13,1.7-19.3c0.4,0,1.2,0,1.6,0
		c8.4-4.8,16.7-9.7,25.1-14.5c0.1-10,0-19.9,0.1-29.9c-7.9-4.8-16.1-9.3-24-14c-0.8-0.6-1.7-0.8-2.7-0.7
		C120.3,89.6,124.7,82.5,122.1,76.2z"/>
</g>
<g id="_x23_ba197fff">
	<path class="st2" d="M81.4,61.2c5.8-3.4,11.6-6.7,17.4-10.1c0.7,2.2,0.3,4.5,0.4,6.8c0,10.5-0.1,21,0.1,31.5
		c7.6-4.5,15.2-8.9,22.9-13.2c2.6,6.3-1.8,13.3,2.1,19.2c-8.2,5.1-16.7,9.7-24.9,14.6c-0.1,10-0.1,20,0,30
		c8.3,4.9,16.7,9.4,24.8,14.5c-2.1,6.2-1.3,12.8-1.7,19.3c-13.8-7.5-27.3-15.7-41-23.5C81.3,120.6,81.2,90.9,81.4,61.2z"/>
	<path class="st2" d="M186.6,112.3c5,3.4,11,5.6,15.5,9.5c0.1,14.4,0,28.7,0,43.1c0,1.5-0.1,3-0.4,4.5c-5-2.9-9.9-5.9-15.1-8.6
		C186.4,144.7,186.5,128.5,186.6,112.3z"/>
	<path class="st2" d="M48.1,169.8c4.7-3.6,10.2-5.9,15.1-9.2c20.4,11.6,40.6,23.4,60.9,35.1c1.2,0.8,2.4-0.5,3.5-1
		c12.6-7.4,25.3-14.6,37.9-22c0.9-0.6,1.7-0.6,2.6,0.1c4.7,2.8,9.4,5.4,14.1,8.2c-18.8,10.9-37.7,21.7-56.5,32.6
		c-1.8,0.5-3.1-1.1-4.5-1.8C96.8,197.8,72.5,183.7,48.1,169.8z"/>
</g>
</svg>
